!!!COM: Music21
!!!OTL: Batendo Rexo
!!!OMV: pezas_marchas_batendo-rexo_batendo-rexo-partitura.musicxml
**kern
*part1
*staff1
*I"Bagpipes
*I'Bag
*clefG^2
*k[]
*M2/4
=1
!LO:TX:a:t=Moderato
*MM112
!LO:TX:a:t=[quarter]=112
8.ccL
16ddJk
8.eeL
16ffJk
=
2gg
.
.
.
.
=
8aaL
16ggL
16ffJJ
8eeL
16ffL
16ggJJ
=
4gg
4ee
=
8eeL
16ffL
16ggJJ
8eeL
16ffL
16ggJJ
=
4ff
4dd
=
8ddL
16eeL
16ffJJ
8ddL
16eeL
16ffJJ
=
4ee
4gg
!!linebreak:original
=||
*M2/4
!LO:TX:a:t=Moderato
*MM112
!LO:TX:a:t=[quarter]=112
8.ccL
16ddJk
8.eeL
16ffJk
=
2gg
.
.
.
.
=
8aaL
16ggL
16ffJJ
8eeL
16ffL
16ggJJ
=
4gg
4ee
=
8eeL
16ffL
16ggJJ
8eeL
16ffL
16ggJJ
=
4ff
4dd
=
8ddL
16eeL
16ffJJ
8ddL
16eeL
16ffJJ
=
2ee
=||
8eeL
16ffL
16ggJJ
8eeL
16ffL
16ggJJ
!!linebreak:original
=
4gg
4ee
=
8cccL
16bbL
16aaJJ
8cccL
16bbL
16aaJJ
=
4ff
4dd
=
8ddL
16eeL
16ffJJ
8ddL
16eeL
16ffJJ
=
2bb
=
8bbL
16aaL
16ggJJ
8ffL
16ggL
16aaJJ
=
2gg
=
8eeL
16ffL
16ggJJ
8eeL
16ffL
16ggJJ
=
4gg
4ee
=
8bb-XL
16aaL
16ggJJ
8ggL
16aaL
16bb-JJ
!!linebreak:original
=
2aa
!!linebreak:original
=
8cccL
16bbL
16aaJJ
8cccL
16bbL
16aaJJ
=
8ggL
8eeJ
8ffL
8ggJ
=
8aaL
8ggJ
8bbL
8ggJ
=
2ccc
=||
8eeL
16ffL
16ggJJ
8eeL
16ffL
16ggJJ
!!linebreak:original
=
4gg
4ee
=
8cccL
16bbL
16aaJJ
8cccL
16bbL
16aaJJ
=
4ff
4dd
=
8ddL
16eeL
16ffJJ
8ddL
16eeL
16ffJJ
=
2bb
=
8bbL
16aaL
16ggJJ
8ffL
16ggL
16aaJJ
=
2gg
=
8eeL
16ffL
16ggJJ
8eeL
16ffL
16ggJJ
=
4gg
4ee
=
8bb-XL
16aaL
16ggJJ
8ggL
16aaL
16bb-JJ
!!pagebreak:original
=
2aa
!!linebreak:original
=
8cccL
16bbL
16aaJJ
8cccL
16bbL
16aaJJ
=
8ggL
8eeJ
8ffL
8ggJ
=
8aaL
8ggJ
8bbL
8ggJ
=
2ccc
=||
*-
!!!system-decoration: s1,s2
